src/assets/svg/product_bg.svg

<svg width="80" height="80" viewBox="0 0 80 80" fill="none" xmlns="http://www.w3.org/2000/svg">
<mask id="mask0_4785_105241" style="mask-type:alpha" maskUnits="userSpaceOnUse" x="0" y="0" width="80" height="80">
<rect width="79.6667" height="80" fill="url(#paint0_linear_4785_105241)"/>
</mask>
<g mask="url(#mask0_4785_105241)">
<path d="M43.7877 7.58674L43.7968 7.59245L43.806 7.59797L68.8617 22.606C68.862 22.6062 68.8623 22.6064 68.8626 22.6066C71.5328 24.2124 73.0899 26.9788 73.0899 30.3139V60.4133C73.0899 63.6715 71.529 66.517 68.8626 68.1206C68.8623 68.1208 68.862 68.121 68.8617 68.1211L43.806 83.1292L43.8046 83.1301C41.142 84.7309 38.079 84.7383 35.3246 83.1264C35.3233 83.1257 35.3221 83.125 35.3209 83.1242L10.2736 68.1211C10.2733 68.121 10.2731 68.1208 10.2728 68.1206C7.60249 66.5149 6.04541 63.7485 6.04541 60.4133V30.3139C6.04541 27.0557 7.60628 24.2101 10.2728 22.6065C10.2731 22.6064 10.2733 22.6062 10.2736 22.606L35.3293 7.59797L35.3293 7.59801L35.3377 7.59288C38.0848 5.91045 41.1323 5.9177 43.7877 7.58674ZM27.9817 36.2081H31.459V67.7546V68.1365L31.7135 68.4212L38.8615 76.4151L39.6069 77.2487L40.3524 76.4151L47.5003 68.4212L47.7549 68.1365V67.7546V36.2081H51.2322C53.3121 36.2081 54.9028 34.5009 54.9028 32.4347C54.9028 30.3685 53.3121 28.6613 51.2322 28.6613H43.199V23.2591C44.2379 22.2488 44.8485 20.8095 44.8485 19.3019C44.8485 16.3384 42.4723 13.8155 39.5284 13.8155C36.5844 13.8155 34.2082 16.3384 34.2082 19.3019C34.2082 20.8095 34.8188 22.2488 35.8577 23.2591V28.6613H27.8246C25.7446 28.6613 24.1539 30.3685 24.1539 32.4347V32.46L24.1552 32.4853C24.2594 34.5403 25.9302 36.2081 27.9817 36.2081Z" stroke="url(#paint1_linear_4785_105241)" stroke-width="2"/>
<path d="M43.7877 7.58674L43.7968 7.59245L43.806 7.59797L68.8617 22.606C68.862 22.6062 68.8623 22.6064 68.8626 22.6066C71.5328 24.2124 73.0899 26.9788 73.0899 30.3139V60.4133C73.0899 63.6715 71.529 66.517 68.8626 68.1206C68.8623 68.1208 68.862 68.121 68.8617 68.1211L43.806 83.1292L43.8046 83.1301C41.142 84.7309 38.079 84.7383 35.3246 83.1264C35.3233 83.1257 35.3221 83.125 35.3209 83.1242L10.2736 68.1211C10.2733 68.121 10.2731 68.1208 10.2728 68.1206C7.60249 66.5149 6.04541 63.7485 6.04541 60.4133V30.3139C6.04541 27.0557 7.60628 24.2101 10.2728 22.6065C10.2731 22.6064 10.2733 22.6062 10.2736 22.606L35.3293 7.59797L35.3293 7.59801L35.3377 7.59288C38.0848 5.91045 41.1323 5.9177 43.7877 7.58674ZM27.9817 36.2081H31.459V67.7546V68.1365L31.7135 68.4212L38.8615 76.4151L39.6069 77.2487L40.3524 76.4151L47.5003 68.4212L47.7549 68.1365V67.7546V36.2081H51.2322C53.3121 36.2081 54.9028 34.5009 54.9028 32.4347C54.9028 30.3685 53.3121 28.6613 51.2322 28.6613H43.199V23.2591C44.2379 22.2488 44.8485 20.8095 44.8485 19.3019C44.8485 16.3384 42.4723 13.8155 39.5284 13.8155C36.5844 13.8155 34.2082 16.3384 34.2082 19.3019C34.2082 20.8095 34.8188 22.2488 35.8577 23.2591V28.6613H27.8246C25.7446 28.6613 24.1539 30.3685 24.1539 32.4347V32.46L24.1552 32.4853C24.2594 34.5403 25.9302 36.2081 27.9817 36.2081Z" stroke="url(#paint2_linear_4785_105241)" stroke-width="2"/>
</g>
<defs>
<linearGradient id="paint0_linear_4785_105241" x1="37.7403" y1="58.1544" x2="40.4936" y2="72.9468" gradientUnits="userSpaceOnUse">
<stop stop-color="#02030D"/>
<stop offset="1" stop-color="#02030D" stop-opacity="0"/>
</linearGradient>
<linearGradient id="paint1_linear_4785_105241" x1="5.04541" y1="85.3331" x2="74.0899" y2="85.3331" gradientUnits="userSpaceOnUse">
<stop stop-color="#FBEC6B"/>
<stop offset="0.178125" stop-color="#FF1F58"/>
<stop offset="0.375" stop-color="#FE63FC"/>
<stop offset="0.582292" stop-color="#0391FF"/>
<stop offset="0.789583" stop-color="#00F9F5"/>
<stop offset="1" stop-color="#01FF8E"/>
</linearGradient>
<linearGradient id="paint2_linear_4785_105241" x1="14.6456" y1="55.7298" x2="4.99045" y2="50.1526" gradientUnits="userSpaceOnUse">
<stop stop-color="#1E1E1E" stop-opacity="0"/>
<stop offset="1" stop-color="#1E1E1E" stop-opacity="0.6"/>
</linearGradient>
</defs>
</svg>

<svg width="80" height="80" fill="none" xmlns="http://www.w3.org/2000/svg"><mask id="prefix__b" style="mask-type:alpha" maskUnits="userSpaceOnUse" x="0" y="0" width="80" height="80"><path fill="url(#prefix__a)" d="M0 0h79.667v80H0z"/></mask><g mask="url(#prefix__b)" stroke-width="2"><path d="m43.788 7.587.009.005.009.006 25.056 15.008c2.67 1.606 4.228 4.373 4.228 7.708v30.1c0 3.258-1.561 6.103-4.227 7.707h-.001L43.806 83.13l-.001.001c-2.663 1.6-5.726 1.608-8.48-.004l-.004-.002-25.047-15.003h-.001c-2.67-1.606-4.228-4.372-4.228-7.708v-30.1c0-3.257 1.561-6.103 4.228-7.706v-.001L35.33 7.598l.009-.005c2.747-1.683 5.794-1.675 8.45-.006ZM27.982 36.208h3.477v31.929l.255.284 7.148 7.994.745.834.745-.834 7.148-7.994.255-.285V36.209h3.477c2.08 0 3.67-1.707 3.67-3.773 0-2.067-1.59-3.774-3.67-3.774H43.2V23.26a5.54 5.54 0 0 0 1.65-3.957c0-2.964-2.377-5.486-5.32-5.486-2.945 0-5.32 2.522-5.32 5.486 0 1.508.61 2.947 1.649 3.957v5.402h-8.033c-2.08 0-3.671 1.707-3.671 3.774v.025l.001.025c.104 2.055 1.775 3.723 3.827 3.723Z" stroke="url(#prefix__c)"/><path d="m43.788 7.587.009.005.009.006 25.056 15.008c2.67 1.606 4.228 4.373 4.228 7.708v30.1c0 3.258-1.561 6.103-4.227 7.707h-.001L43.806 83.13l-.001.001c-2.663 1.6-5.726 1.608-8.48-.004l-.004-.002-25.047-15.003h-.001c-2.67-1.606-4.228-4.372-4.228-7.708v-30.1c0-3.257 1.561-6.103 4.228-7.706v-.001L35.33 7.598l.009-.005c2.747-1.683 5.794-1.675 8.45-.006ZM27.982 36.208h3.477v31.929l.255.284 7.148 7.994.745.834.745-.834 7.148-7.994.255-.285V36.209h3.477c2.08 0 3.67-1.707 3.67-3.773 0-2.067-1.59-3.774-3.67-3.774H43.2V23.26a5.54 5.54 0 0 0 1.65-3.957c0-2.964-2.377-5.486-5.32-5.486-2.945 0-5.32 2.522-5.32 5.486 0 1.508.61 2.947 1.649 3.957v5.402h-8.033c-2.08 0-3.671 1.707-3.671 3.774v.025l.001.025c.104 2.055 1.775 3.723 3.827 3.723Z" stroke="url(#prefix__d)"/></g><defs><linearGradient id="prefix__a" x1="37.74" y1="58.154" x2="40.494" y2="72.947" gradientUnits="userSpaceOnUse"><stop stop-color="#02030D"/><stop offset="1" stop-color="#02030D" stop-opacity="0"/></linearGradient><linearGradient id="prefix__c" x1="5.045" y1="85.333" x2="74.09" y2="85.333" gradientUnits="userSpaceOnUse"><stop stop-color="#FBEC6B"/><stop offset=".178" stop-color="#FF1F58"/><stop offset=".375" stop-color="#FE63FC"/><stop offset=".582" stop-color="#0391FF"/><stop offset=".79" stop-color="#00F9F5"/><stop offset="1" stop-color="#01FF8E"/></linearGradient><linearGradient id="prefix__d" x1="14.646" y1="55.73" x2="4.99" y2="50.153" gradientUnits="userSpaceOnUse"><stop stop-color="#1E1E1E" stop-opacity="0"/><stop offset="1" stop-color="#1E1E1E" stop-opacity=".6"/></linearGradient></defs></svg>
